X:1
T:Title
L:1/8
M:4/4
K:G
V:1 treble nm="Midi_1"
V:1
 G2 A2 B2 c2 | d2 e2"^Descant to AMNS 361" d2 c2 | B2 F2 G2 e2 | e2 dc B4 | c2 e2 d2 d2 | %5
w: You, cre- at- or-|God, have writ- ten|your great name on|all man * kind;|for our grow- ing|
 B2 ^c2 d2 d2 | f2 f2 e2 d2 | d2 ^c2 d4 | A2 A2 B2 cd | e2 d2 e2 f2 | %10
w: in your like- ness|bring the life of|Christ to mind;|that by our re *|sponse and ser- vice|
 g2 B2 c2"^Descant by Andrew Sims\nbased on harmony by Noel Rawsthorne\n17 June 2016" A2 | %11
w: earth its des- ti-|
 d2 d2 d4 |] %12
w: ny may find.|

